X:SSF 14-19b 16
T:Beatrice Hill's Three-handed Reel
B:Callaghan, Hardcore English, 2007, p.27-3
M:4/4
K:D
P:A
FG| B2A2 AFAd c2B2 B2ed cdef gece |1,3 edcB A2 :|2,4 e2dc d2 :|
P:B
A2| B2AF DFAB A2G2 G2EF GFED CDEF |1,3 G2FE FG :|2,4 E2D2 D2 :|

% Into...

